static/assets/head_icons_png/man/bizi/1044014.svg

<svg xmlns="http://www.w3.org/2000/svg" width="5" height="10"><g transform="translate(2.45 4.6)"><radialGradient id="a" gradientUnits="userSpaceOnUse" gradientTransform="matrix(.0064 0 0 .00923 -1.6 .85)" spreadMethod="pad" cx="0" cy="0" r="819.2" fx="0" fy="0"><stop offset=".067" stop-color="#f58b69" stop-opacity=".29"/><stop offset="1" stop-color="#ffdec2" stop-opacity=".141"/></radialGradient><path d="M.85-3v1L1-.5l.2 1.55.25 1.5-.35.65-.3.2-.45.2-.65-.4-.45-.7.1-.6.2-1.5.15-1.45-.1-1.7Q-.65-4.2-1.7-4.6h.25q1.15.75 1.4 1.05l.15 1.2-.05 1.7-.2 1.7-.2 1.2.15.6.05.05.25.25.4.1.6-.45q.25-.4.1-.85L.85.35l-.2-1.4-.1-1.7q0-1 1.45-1.75Q.95-3.45.85-3" fill="url(#a)"/><radialGradient id="b" gradientUnits="userSpaceOnUse" gradientTransform="matrix(.01431 0 0 .01495 -2.25 1)" spreadMethod="pad" cx="0" cy="0" r="819.2" fx="0" fy="0"><stop offset="0" stop-color="#e89573"/><stop offset="1" stop-color="#ffdec2" stop-opacity="0"/></radialGradient><path d="M1.45 3.15q-.8.6-1.15.6l-.75-.25-.25-.25-.05-.05h.05L-.75 3l-.2-1.35-.15-.5q-.15-.3-.55-.2l.55-2-.2-1.8-.4-.9v-.85q1.05.4 1.3 1.85l.1 1.7L-.45.4l-.2 1.5-.1.6.45.7.65.4.45-.2.3-.2.35-.65-.25-1.5L1-.5.85-2v-1Q.95-3.45 2-4.5l.05.2-.3.95-.1 1.2.05 1.7.15 1.65.1.65.3.55.2.35q-.2-.25-1 .4M-1.2 2.6v.3l-.15-.15-.35-.1-.15.05.1-.35q.15-.35.5-.3l.05.55" fill="url(#b)"/><radialGradient id="c" gradientUnits="userSpaceOnUse" gradientTransform="matrix(.00519 0 0 .00519 2.25 2.4)" spreadMethod="pad" cx="0" cy="0" r="819.2" fx="210463" fy="0"><stop offset="0" stop-color="#f09177" stop-opacity=".451"/><stop offset=".541" stop-color="#e37b51" stop-opacity=".714"/></radialGradient><path d="M1.25 3.55l-.1.1-.25.1-.7.35-.5-.15-.15-.15H-.6l-.2-.1-.15.1-.15.15-.45-.3-.15-.05-.4-.55v-.2l.05-.2.25-.6.4-.25.2-.35q0-.15-.3-.15l-.25.2.05-.35.05-.2q.4-.1.55.2l.15.5.2 1.35.05.2h-.05l.05.05.25.25.75.25q.35 0 1.15-.6.8-.65 1-.4v.3l-.1.4L1.8 4l-.25-.05.1-.1.1-.2-.25-.1-.25.05v-.05m-2.5-1.5q-.35-.05-.5.3l-.1.35.15-.05.35.1.15.15v-.3l-.05-.55" fill="url(#c)"/><radialGradient id="d" gradientUnits="userSpaceOnUse" gradientTransform="matrix(.0066 0 0 .0066 -1.6 3.45)" spreadMethod="pad" cx="0" cy="0" r="819.2" fx="210524" fy="0"><stop offset="0" stop-color="#b35437" stop-opacity=".812"/><stop offset=".788" stop-color="#ed9e76" stop-opacity=".702"/></radialGradient><path d="M-1.5 1.3q.3 0 .3.15l-.2.35-.4.25-.25.6-.05.2v.2l.4.55.15.05.45.3.15-.15.15-.1.2.1H-.45l.15.15.5.15.7-.35-.65.45-.75.05h-.3l-.8-.3-.05-.05-.6-.6v-.4l.25-.95.25-.45.25-.2" fill="url(#d)"/><radialGradient id="e" gradientUnits="userSpaceOnUse" gradientTransform="matrix(.00667 0 0 .00667 -1.55 3.5)" spreadMethod="pad" cx="0" cy="0" r="819.2" fx="0" fy="0"><stop offset=".212" stop-color="#f0aa86" stop-opacity=".624"/><stop offset="1" stop-color="#f0aa86" stop-opacity=".173"/></radialGradient><path d="M1.25 3.6l.25-.05.25.1-.1.2-.1.1.25.05.55-.55-.4.55-.35.15-.25-.05L1 4.05l-1 .4-.25.1-.6.1h-.1l-.55-.05-.2-.2-.7-.75-.05-.6V2.9l.75-1.75-.05.35-.25.45-.25.95v.4l.6.6.05.05.8.3h.3l.75-.05.65-.45.25-.1.1-.05" fill="url(#e)"/><path d="M-1.35 3.15q.1 0 .55.35l.45.3-.7-.3-.35-.2.05-.15m2.35.5q.5-.3.75-.3h.1l-.25.2-.6.1" fill="#823709"/><radialGradient id="f" gradientUnits="userSpaceOnUse" gradientTransform="matrix(.00058 -.00002 .0001 .0037 .35 -.3)" spreadMethod="pad" cx="0" cy="0" r="819.2" fx="0" fy="0"><stop offset=".204" stop-color="#fff" stop-opacity=".78"/><stop offset=".988" stop-color="#fff" stop-opacity="0"/></radialGradient><path d="M.7-2.4L.85-.3l-.05 2-.35.95q-.2 0-.35-.95l-.3-2 .25-2.1q.05-.85.2-.85l.45.85" fill="url(#f)"/><radialGradient id="g" gradientUnits="userSpaceOnUse" gradientTransform="matrix(.00087 .00002 -.00003 .00098 .4 2.5)" spreadMethod="pad" cx="0" cy="0" r="819.2" fx="0" fy="0"><stop offset=".204" stop-color="#fff" stop-opacity=".78"/><stop offset=".988" stop-color="#fff" stop-opacity="0"/></radialGradient><path d="M.4 3.3q-.25 0-.5-.3l-.2-.55.25-.55.5-.2.5.25.15.55-.2.55-.5.25" fill="url(#g)"/></g></svg>

<?xml version="1.0" encoding="utf-8"?>
<svg version="1.1" id="Layer_1"
xmlns="http://www.w3.org/2000/svg"
xmlns:xlink="http://www.w3.org/1999/xlink"
xmlns:author="http://www.sothink.com"
width="5px" height="10px"
xml:space="preserve">
<g id="2" transform="matrix(1, 0, 0, 1, 2.45, 4.6)">
<radialGradient
id="RadialGradID_5" gradientUnits="userSpaceOnUse" gradientTransform="matrix(0.00640869, 0, 0, 0.00923157, -1.6, 0.85)" spreadMethod ="pad" cx="0" cy="0" r="819.2" fx="0" fy="0" >
<stop  offset="0.0666667"  style="stop-color:#F58B69;stop-opacity:0.290196" />
<stop  offset="1"  style="stop-color:#FFDEC2;stop-opacity:0.141176" />
</radialGradient>
<path style="fill:url(#RadialGradID_5) " d="M0.85,-3L0.85 -2L1 -0.5L1.2 1.05L1.45 2.55L1.1 3.2L0.8 3.4L0.35 3.6L-0.3 3.2L-0.75 2.5L-0.65 1.9L-0.45 0.4L-0.3 -1.05L-0.4 -2.75Q-0.65 -4.2 -1.7 -4.6L-1.45 -4.6Q-0.3 -3.85 -0.05 -3.55L0.1 -2.35L0.05 -0.65L-0.15 1.05L-0.35 2.25L-0.2 2.85L-0.15 2.9L0.1 3.15L0.5 3.25L1.1 2.8Q1.35 2.4 1.2 1.95L0.85 0.35L0.65 -1.05L0.55 -2.75Q0.55 -3.75 2 -4.5Q0.95 -3.45 0.85 -3" />
<radialGradient
id="RadialGradID_6" gradientUnits="userSpaceOnUse" gradientTransform="matrix(0.0143127, 0, 0, 0.0149536, -2.25, 1)" spreadMethod ="pad" cx="0" cy="0" r="819.2" fx="0" fy="0" >
<stop  offset="0"  style="stop-color:#E89573;stop-opacity:1" />
<stop  offset="1"  style="stop-color:#FFDEC2;stop-opacity:0" />
</radialGradient>
<path style="fill:url(#RadialGradID_6) " d="M1.45,3.15Q0.65 3.75 0.3 3.75L-0.45 3.5L-0.7 3.25L-0.75 3.2L-0.7 3.2L-0.75 3L-0.95 1.65L-1.1 1.15Q-1.25 0.85 -1.65 0.95L-1.1 -1.05L-1.3 -2.85L-1.7 -3.75L-1.7 -4.6Q-0.65 -4.2 -0.4 -2.75L-0.3 -1.05L-0.45 0.4L-0.65 1.9L-0.75 2.5L-0.3 3.2L0.35 3.6L0.8 3.4L1.1 3.2L1.45 2.55L1.2 1.05L1 -0.5L0.85 -2L0.85 -3Q0.95 -3.45 2 -4.5L2.05 -4.3L1.75 -3.35L1.65 -2.15L1.7 -0.45L1.85 1.2L1.95 1.85L2.25 2.4L2.45 2.75Q2.25 2.5 1.45 3.15M-1.2,2.6L-1.2 2.9L-1.35 2.75L-1.7 2.65L-1.85 2.7L-1.75 2.35Q-1.6 2 -1.25 2.05L-1.2 2.6" />
<radialGradient
id="RadialGradID_7" gradientUnits="userSpaceOnUse" gradientTransform="matrix(0.00518799, 0, 0, 0.00518799, 2.25, 2.4)" spreadMethod ="pad" cx="0" cy="0" r="819.2" fx="210463" fy="0" >
<stop  offset="0"  style="stop-color:#F09177;stop-opacity:0.45098" />
<stop  offset="0.541176"  style="stop-color:#E37B51;stop-opacity:0.713725" />
</radialGradient>
<path style="fill:url(#RadialGradID_7) " d="M1.25,3.55L1.15 3.65L0.9 3.75L0.2 4.1L-0.3 3.95L-0.45 3.8L-0.55 3.8L-0.6 3.8L-0.8 3.7L-0.95 3.8L-1.1 3.95L-1.55 3.65L-1.7 3.6L-2.1 3.05L-2.1 2.85L-2.05 2.65L-1.8 2.05L-1.4 1.8L-1.2 1.45Q-1.2 1.3 -1.5 1.3L-1.75 1.5L-1.7 1.15L-1.65 0.95Q-1.25 0.85 -1.1 1.15L-0.95 1.65L-0.75 3L-0.7 3.2L-0.75 3.2L-0.7 3.25L-0.45 3.5L0.3 3.75Q0.65 3.75 1.45 3.15Q2.25 2.5 2.45 2.75L2.45 3.05L2.35 3.45L1.8 4L1.55 3.95L1.65 3.85L1.75 3.65L1.5 3.55L1.25 3.6L1.25 3.55M-1.25,2.05Q-1.6 2 -1.75 2.35L-1.85 2.7L-1.7 2.65L-1.35 2.75L-1.2 2.9L-1.2 2.6L-1.25 2.05" />
<radialGradient
id="RadialGradID_8" gradientUnits="userSpaceOnUse" gradientTransform="matrix(0.00660706, 0, 0, 0.00660706, -1.6, 3.45)" spreadMethod ="pad" cx="0" cy="0" r="819.2" fx="210524" fy="0" >
<stop  offset="0"  style="stop-color:#B35437;stop-opacity:0.811765" />
<stop  offset="0.788235"  style="stop-color:#ED9E76;stop-opacity:0.701961" />
</radialGradient>
<path style="fill:url(#RadialGradID_8) " d="M-1.5,1.3Q-1.2 1.3 -1.2 1.45L-1.4 1.8L-1.8 2.05L-2.05 2.65L-2.1 2.85L-2.1 3.05L-1.7 3.6L-1.55 3.65L-1.1 3.95L-0.95 3.8L-0.8 3.7L-0.6 3.8L-0.55 3.8L-0.45 3.8L-0.3 3.95L0.2 4.1L0.9 3.75L0.25 4.2L-0.5 4.25L-0.8 4.25L-1.6 3.95L-1.65 3.9L-2.25 3.3L-2.25 2.9L-2 1.95L-1.75 1.5L-1.5 1.3" />
<radialGradient
id="RadialGradID_9" gradientUnits="userSpaceOnUse" gradientTransform="matrix(0.00666809, 0, 0, 0.00666809, -1.55, 3.5)" spreadMethod ="pad" cx="0" cy="0" r="819.2" fx="0" fy="0" >
<stop  offset="0.211765"  style="stop-color:#F0AA86;stop-opacity:0.623529" />
<stop  offset="1"  style="stop-color:#F0AA86;stop-opacity:0.172549" />
</radialGradient>
<path style="fill:url(#RadialGradID_9) " d="M1.25,3.6L1.5 3.55L1.75 3.65L1.65 3.85L1.55 3.95L1.8 4L2.35 3.45L1.95 4L1.6 4.15L1.35 4.1L1 4.05L0 4.45L-0.25 4.55L-0.85 4.65L-0.95 4.65L-1.5 4.6L-1.7 4.4L-2.4 3.65L-2.45 3.05L-2.45 2.9L-1.7 1.15L-1.75 1.5L-2 1.95L-2.25 2.9L-2.25 3.3L-1.65 3.9L-1.6 3.95L-0.8 4.25L-0.5 4.25L0.25 4.2L0.9 3.75L1.15 3.65L1.25 3.6" />
<path style="fill:#823709;fill-opacity:1" d="M-1.35,3.15Q-1.25 3.15 -0.8 3.5L-0.35 3.8L-1.05 3.5L-1.4 3.3L-1.35 3.15M1,3.65Q1.5 3.35 1.75 3.35L1.85 3.35L1.6 3.55L1 3.65" />
<radialGradient
id="RadialGradID_10" gradientUnits="userSpaceOnUse" gradientTransform="matrix(0.000579834, -1.52588e-05, 0.000106812, 0.00370789, 0.35, -0.3)" spreadMethod ="pad" cx="0" cy="0" r="819.2" fx="0" fy="0" >
<stop  offset="0.203922"  style="stop-color:#FFFFFF;stop-opacity:0.780392" />
<stop  offset="0.988235"  style="stop-color:#FFFFFF;stop-opacity:0" />
</radialGradient>
<path style="fill:url(#RadialGradID_10) " d="M0.7,-2.4L0.85 -0.3L0.8 1.7L0.45 2.65Q0.25 2.65 0.1 1.7L-0.2 -0.3L0.05 -2.4Q0.1 -3.25 0.25 -3.25L0.7 -2.4" />
<radialGradient
id="RadialGradID_11" gradientUnits="userSpaceOnUse" gradientTransform="matrix(0.000869751, 1.52588e-05, -3.05176e-05, 0.000976562, 0.4, 2.5)" spreadMethod ="pad" cx="0" cy="0" r="819.2" fx="0" fy="0" >
<stop  offset="0.203922"  style="stop-color:#FFFFFF;stop-opacity:0.780392" />
<stop  offset="0.988235"  style="stop-color:#FFFFFF;stop-opacity:0" />
</radialGradient>
<path style="fill:url(#RadialGradID_11) " d="M0.4,3.3Q0.15 3.3 -0.1 3L-0.3 2.45L-0.05 1.9L0.45 1.7L0.95 1.95L1.1 2.5L0.9 3.05L0.4 3.3" />
</g>
</svg>
